places/folder-music.svg

<?xml version="1.0" encoding="UTF-8" standalone="no"?>
<!-- Created with Inkscape (http://www.inkscape.org/) -->

<svg
   xmlns:dc="http://purl.org/dc/elements/1.1/"
   xmlns:cc="http://creativecommons.org/ns#"
   xmlns:rdf="http://www.w3.org/1999/02/22-rdf-syntax-ns#"
   xmlns:svg="http://www.w3.org/2000/svg"
   xmlns="http://www.w3.org/2000/svg"
   xmlns:sodipodi="http://sodipodi.sourceforge.net/DTD/sodipodi-0.dtd"
   xmlns:inkscape="http://www.inkscape.org/namespaces/inkscape"
   width="48"
   height="48"
   id="svg4152"
   version="1.1"
   inkscape:version="0.91 r13725"
   viewBox="0 0 48 48"
   sodipodi:docname="folder-music.svg">
  <defs
     id="defs4154">
    <filter
       style="color-interpolation-filters:sRGB;"
       inkscape:label="Drop Shadow"
       id="filter4197"
       y="-0.20000000000000001"
       height="1.3999999999999999">
      <feFlood
         flood-opacity="0.298039"
         flood-color="rgb(0,0,0)"
         result="flood"
         id="feFlood4199" />
      <feComposite
         in="flood"
         in2="SourceGraphic"
         operator="in"
         result="composite1"
         id="feComposite4201" />
      <feGaussianBlur
         in="composite1"
         stdDeviation="0.8"
         result="blur"
         id="feGaussianBlur4203" />
      <feOffset
         dx="0"
         dy="0.4"
         result="offset"
         id="feOffset4205" />
      <feComposite
         in="SourceGraphic"
         in2="offset"
         operator="over"
         result="composite2"
         id="feComposite4207" />
    </filter>
    <filter
       style="color-interpolation-filters:sRGB"
       inkscape:label="Drop Shadow"
       id="filter4197-6"
       y="-0.2"
       height="1.4">
      <feFlood
         flood-opacity="0.298039"
         flood-color="rgb(0,0,0)"
         result="flood"
         id="feFlood4199-7" />
      <feComposite
         in="flood"
         in2="SourceGraphic"
         operator="in"
         result="composite1"
         id="feComposite4201-5" />
      <feGaussianBlur
         in="composite1"
         stdDeviation="0.8"
         result="blur"
         id="feGaussianBlur4203-3" />
      <feOffset
         dx="0"
         dy="0.4"
         result="offset"
         id="feOffset4205-5" />
      <feComposite
         in="SourceGraphic"
         in2="offset"
         operator="over"
         result="composite2"
         id="feComposite4207-6" />
    </filter>
    <clipPath
       clipPathUnits="userSpaceOnUse"
       id="clipPath4964">
      <path
         style="color:#000000;font-style:normal;font-variant:normal;font-weight:normal;font-stretch:normal;font-size:medium;line-height:normal;font-family:sans-serif;text-indent:0;text-align:start;text-decoration:none;text-decoration-line:none;text-decoration-style:solid;text-decoration-color:#000000;letter-spacing:normal;word-spacing:normal;text-transform:none;direction:ltr;block-progression:tb;writing-mode:lr-tb;baseline-shift:baseline;text-anchor:start;white-space:normal;clip-rule:nonzero;display:inline;overflow:visible;visibility:visible;opacity:1;isolation:auto;mix-blend-mode:normal;color-interpolation:sRGB;color-interpolation-filters:linearRGB;solid-color:#000000;solid-opacity:1;fill:#5d4037;fill-opacity:1;fill-rule:evenodd;stroke:none;stroke-width:4;stroke-linecap:round;stroke-linejoin:round;stroke-miterlimit:4;stroke-dasharray:none;stroke-dashoffset:0;stroke-opacity:1;color-rendering:auto;image-rendering:auto;shape-rendering:auto;text-rendering:auto;enable-background:accumulate"
         d="m 4,-24 c -1.1045238,1.1e-4 -1.9998896,0.895476 -2,2 l 0,6 0,22 c 1.104e-4,1.104524 0.8954762,1.99989 2,2 l 40,0 c 1.104524,-1.1e-4 1.99989,-0.895476 2,-2 l 0,-22 0,-6 c -1.1e-4,-1.104524 -0.895476,-1.99989 -2,-2 l -16,0 c -0.530398,1.02e-4 -1.039039,0.210865 -1.414062,0.585938 L 24,-20.828125 21.414062,-23.414062 C 21.039039,-23.789135 20.530398,-23.999898 20,-24 l -16,0 z"
         id="path4966"
         inkscape:connector-curvature="0" />
    </clipPath>
    <filter
       style="color-interpolation-filters:sRGB;"
       inkscape:label="Drop Shadow"
       id="filter4968"
       y="-0.20000000000000001"
       height="1.3999999999999999">
      <feFlood
         flood-opacity="0.298039"
         flood-color="rgb(0,0,0)"
         result="flood"
         id="feFlood4970" />
      <feComposite
         in="flood"
         in2="SourceGraphic"
         operator="in"
         result="composite1"
         id="feComposite4972" />
      <feGaussianBlur
         in="composite1"
         stdDeviation="0.8"
         result="blur"
         id="feGaussianBlur4974" />
      <feOffset
         dx="0"
         dy="0.4"
         result="offset"
         id="feOffset4976" />
      <feComposite
         in="SourceGraphic"
         in2="offset"
         operator="over"
         result="composite2"
         id="feComposite4978" />
    </filter>
    <filter
       style="color-interpolation-filters:sRGB;"
       inkscape:label="Drop Shadow"
       id="filter4172"
       y="-0.20000000000000001"
       height="1.3999999999999999">
      <feFlood
         flood-opacity="0.298039"
         flood-color="rgb(0,0,0)"
         result="flood"
         id="feFlood4174" />
      <feComposite
         in="flood"
         in2="SourceGraphic"
         operator="in"
         result="composite1"
         id="feComposite4176" />
      <feGaussianBlur
         in="composite1"
         stdDeviation="0.8"
         result="blur"
         id="feGaussianBlur4178" />
      <feOffset
         dx="0"
         dy="0.4"
         result="offset"
         id="feOffset4180" />
      <feComposite
         in="SourceGraphic"
         in2="offset"
         operator="over"
         result="composite2"
         id="feComposite4182" />
    </filter>
  </defs>
  <sodipodi:namedview
     id="base"
     pagecolor="#ededed"
     bordercolor="#000000"
     borderopacity="0.49803922"
     inkscape:pageopacity="0"
     inkscape:pageshadow="2"
     inkscape:zoom="15.696216"
     inkscape:cx="10.118961"
     inkscape:cy="20.478811"
     inkscape:current-layer="layer1"
     showgrid="false"
     inkscape:grid-bbox="true"
     inkscape:document-units="px"
     inkscape:showpageshadow="false"
     borderlayer="true"
     inkscape:window-width="1920"
     inkscape:window-height="1012"
     inkscape:window-x="0"
     inkscape:window-y="32"
     inkscape:window-maximized="1">
    <inkscape:grid
       type="xygrid"
       id="grid4700"
       color="#000000"
       opacity="0.0627451"
       empcolor="#000000"
       empopacity="0.1254902"
       empspacing="4"
       spacingx="2"
       spacingy="2" />
  </sodipodi:namedview>
  <metadata
     id="metadata4157">
    <rdf:RDF>
      <cc:Work
         rdf:about="">
        <dc:format>image/svg+xml</dc:format>
        <dc:type
           rdf:resource="http://purl.org/dc/dcmitype/StillImage" />
        <dc:title />
      </cc:Work>
    </rdf:RDF>
  </metadata>
  <g
     id="layer1"
     inkscape:label="Layer 1"
     inkscape:groupmode="layer"
     transform="translate(0,32)">
    <path
       style="fill:#795548;fill-opacity:1;fill-rule:evenodd;stroke:#795548;stroke-width:4;stroke-linecap:round;stroke-linejoin:round;stroke-miterlimit:4;stroke-dasharray:none;stroke-opacity:1;filter:url(#filter4172)"
       d="m 4,-22 0,6 0,22 40,0 0,-22 0,-6 -16,0 -4,4 -4,-4 -16,0 z"
       id="path4142"
       inkscape:connector-curvature="0" />
    <path
       style="fill:#8d6e63;fill-opacity:1;fill-rule:evenodd;stroke:#8d6e63;stroke-width:4;stroke-linecap:round;stroke-linejoin:round;stroke-miterlimit:4;stroke-dasharray:none;stroke-opacity:1;filter:url(#filter4197)"
       d="m 44,-22 -16,0 -6,6 -18,0 0,22 40,0 z"
       id="path4144"
       inkscape:connector-curvature="0"
       sodipodi:nodetypes="ccccccc"
       clip-path="url(#clipPath4964)"
       transform="matrix(-1,0,0,1,48,0)" />
    <path
       style="fill:none;fill-rule:evenodd;stroke:#795548;stroke-width:2;stroke-linecap:round;stroke-linejoin:round;stroke-miterlimit:4;stroke-dasharray:none;stroke-opacity:1"
       d="m 20,0 0,-12 11,0 0,12"
       id="path4180"
       inkscape:connector-curvature="0"
       sodipodi:nodetypes="cccc" />
    <circle
       style="color:#000000;clip-rule:nonzero;display:inline;overflow:visible;visibility:visible;opacity:1;isolation:auto;mix-blend-mode:normal;color-interpolation:sRGB;color-interpolation-filters:linearRGB;solid-color:#000000;solid-opacity:1;fill:#795548;fill-opacity:1;fill-rule:evenodd;stroke:none;stroke-width:2;stroke-linecap:round;stroke-linejoin:round;stroke-miterlimit:4;stroke-dasharray:none;stroke-dashoffset:0;stroke-opacity:1;color-rendering:auto;image-rendering:auto;shape-rendering:auto;text-rendering:auto;enable-background:accumulate"
       id="path4163"
       cx="18"
       cy="0"
       r="3" />
    <path
       style="fill:none;fill-rule:evenodd;stroke:#795548;stroke-width:4;stroke-linecap:butt;stroke-linejoin:miter;stroke-miterlimit:4;stroke-dasharray:none;stroke-opacity:1"
       d="m 20,-11 11,0"
       id="path4182"
       inkscape:connector-curvature="0"
       sodipodi:nodetypes="cc" />
    <circle
       style="color:#000000;clip-rule:nonzero;display:inline;overflow:visible;visibility:visible;opacity:1;isolation:auto;mix-blend-mode:normal;color-interpolation:sRGB;color-interpolation-filters:linearRGB;solid-color:#000000;solid-opacity:1;fill:#795548;fill-opacity:1;fill-rule:evenodd;stroke:none;stroke-width:2;stroke-linecap:round;stroke-linejoin:round;stroke-miterlimit:4;stroke-dasharray:none;stroke-dashoffset:0;stroke-opacity:1;color-rendering:auto;image-rendering:auto;shape-rendering:auto;text-rendering:auto;enable-background:accumulate"
       id="path4163-3"
       cx="29"
       cy="0"
       r="3" />
  </g>
</svg>

<svg xmlns="http://www.w3.org/2000/svg" width="48" height="48">
    <defs>
        <filter id="c" height="1.4" y="-.2" color-interpolation-filters="sRGB">
            <feFlood flood-opacity=".298" result="flood"/>
            <feComposite in="flood" in2="SourceGraphic" operator="in" result="composite1"/>
            <feGaussianBlur in="composite1" result="blur" stdDeviation=".8"/>
            <feOffset dy=".4" result="offset"/>
            <feComposite in="SourceGraphic" in2="offset" result="composite2"/>
        </filter>
        <clipPath id="b">
            <path fill="#5d4037" fill-rule="evenodd" d="M4-24a2 2 0 0 0-2 2V6a2 2 0 0 0 2 2h40a2 2 0 0 0 2-2v-28a2 2 0 0 0-2-2H28a2 2 0 0 0-1.414.586L24-20.828l-2.586-2.586A2 2 0 0 0 20-24H4z"/>
        </clipPath>
        <filter id="a" height="1.4" y="-.2" color-interpolation-filters="sRGB">
            <feFlood flood-opacity=".298" result="flood"/>
            <feComposite in="flood" in2="SourceGraphic" operator="in" result="composite1"/>
            <feGaussianBlur in="composite1" result="blur" stdDeviation=".8"/>
            <feOffset dy=".4" result="offset"/>
            <feComposite in="SourceGraphic" in2="offset" result="composite2"/>
        </filter>
    </defs>
    <g transform="translate(0 32)">
        <path fill="#795548" fill-rule="evenodd" stroke="#795548" stroke-linecap="round" stroke-linejoin="round" stroke-width="4" d="M4-22V6h40v-28H28l-4 4-4-4H4z" filter="url(#a)"/>
        <path fill="#8d6e63" fill-rule="evenodd" stroke="#8d6e63" stroke-linecap="round" stroke-linejoin="round" stroke-width="4" d="M44-22H28l-6 6H4V6h40z" clip-path="url(#b)" filter="url(#c)" transform="matrix(-1 0 0 1 48 0)"/>
        <path fill="none" stroke="#795548" stroke-linecap="round" stroke-linejoin="round" stroke-width="2" d="M20 0v-12h11V0"/>
        <circle fill="#795548" fill-rule="evenodd" cx="18" r="3"/>
        <path fill="none" stroke="#795548" stroke-width="4" d="M20-11h11"/>
        <circle fill="#795548" fill-rule="evenodd" cx="29" r="3"/>
    </g>
</svg>
